assets/img/map-marker.svg

<svg width="51" height="66" viewBox="0 0 51 66" fill="none" xmlns="http://www.w3.org/2000/svg">
<path d="M51 26.0526C51 40.4411 25.5 66 25.5 66C25.5 66 0 40.4411 0 26.0526C0 11.6642 11.4167 0 25.5 0C39.5833 0 51 11.6642 51 26.0526Z" fill="#293041"/>
<path d="M24.4748 12.9005C25.4157 12.345 26.5843 12.345 27.5252 12.9005L31.22 15.082L34.972 17.3801C35.8554 17.9211 36.3971 18.8796 36.405 19.9155L36.44 24.5L36.405 29.0845C36.3971 30.1204 35.8554 31.0789 34.972 31.6199L31.22 33.918L27.5252 36.0995C26.5843 36.655 25.4157 36.655 24.4748 36.0995L20.78 33.918L17.028 31.6199C16.1446 31.0789 15.6029 30.1204 15.595 29.0845L15.56 24.5L15.595 19.9155C15.6029 18.8796 16.1446 17.9211 17.028 17.3801L20.78 15.082L24.4748 12.9005Z" fill="white"/>
</svg>

<svg width="51" height="66" fill="none" xmlns="http://www.w3.org/2000/svg"><path d="M51 26.053C51 40.44 25.5 66 25.5 66S0 40.441 0 26.053C0 11.664 11.417 0 25.5 0S51 11.664 51 26.053z" fill="#293041"/><path d="M24.475 12.9a3 3 0 013.05 0l3.695 2.182 3.752 2.298a3 3 0 011.433 2.536l.035 4.584-.035 4.584a3 3 0 01-1.433 2.536l-3.752 2.298-3.695 2.181a3 3 0 01-3.05 0l-3.695-2.181-3.752-2.298a3 3 0 01-1.433-2.536L15.56 24.5l.035-4.584a3 3 0 011.433-2.536l3.752-2.298 3.695-2.182z" fill="#fff"/></svg>
